build/svg/cmd/sc_extrusionsurfacefloater.svg

<?xml version="1.0" encoding="UTF-8" standalone="no"?>
<svg
   xmlns:dc="http://purl.org/dc/elements/1.1/"
   xmlns:cc="http://creativecommons.org/ns#"
   xmlns:rdf="http://www.w3.org/1999/02/22-rdf-syntax-ns#"
   xmlns:svg="http://www.w3.org/2000/svg"
   xmlns="http://www.w3.org/2000/svg"
   xmlns:sodipodi="http://sodipodi.sourceforge.net/DTD/sodipodi-0.dtd"
   xmlns:inkscape="http://www.inkscape.org/namespaces/inkscape"
   viewBox="0 0 16 16"
   version="1.1"
   id="svg6"
   sodipodi:docname="sc_extrusionsurfacefloater.svg"
   inkscape:export-filename="/home/jupiter007/Libreoffice yaru theme fullcolor/build/cmd/sc_extrusionsurfacefloater.png"
   inkscape:export-xdpi="95"
   inkscape:export-ydpi="95"
   inkscape:version="0.92.5 (2060ec1f9f, 2020-04-08)">
  <metadata
     id="metadata12">
    <rdf:RDF>
      <cc:Work
         rdf:about="">
        <dc:format>image/svg+xml</dc:format>
        <dc:type
           rdf:resource="http://purl.org/dc/dcmitype/StillImage" />
      </cc:Work>
    </rdf:RDF>
  </metadata>
  <defs
     id="defs10" />
  <sodipodi:namedview
     pagecolor="#ffffff"
     bordercolor="#666666"
     borderopacity="1"
     objecttolerance="10"
     gridtolerance="10"
     guidetolerance="10"
     inkscape:pageopacity="0"
     inkscape:pageshadow="2"
     inkscape:window-width="1920"
     inkscape:window-height="1011"
     id="namedview8"
     showgrid="false"
     inkscape:zoom="41.7193"
     inkscape:cx="3.9683793"
     inkscape:cy="7.673576"
     inkscape:window-x="0"
     inkscape:window-y="32"
     inkscape:window-maximized="1"
     inkscape:current-layer="svg6" />
  <path
     d="m6.125 2-4.125 4v8h8l4-4v-8z"
     fill="#b3b3b3"
     id="path2"
     style="fill:#cae795;fill-opacity:1;opacity:1" />
  <path
     d="m5.3125 2c.01-.002-3.3125 3.3125-3.3125 3.3125v.6875 7.3125.6875h.6875 7.3125.6875s3.32345-3.28265 3.3125-3.28125v-.71875-8h-8zm.5 1h6.46875c-.83334.84433-1.62719 1.66118-1.96875 2h-3.3125-1-1-1.3125l1.3125-1.28125c-.0429568-.0031667.8125-.71875.8125-.71875zm7.1875.71875v6.59375l-.71875.6875c-.54463.55182-.73557.762-1.28125 1.3125v-1.3125-1-1-3-.3125zm-10 2.28125h2 1 4v4 1 2h-6.3125-.6875v-.6875z"
     fill="#232629"
     id="path4"
     style="fill:#46a926;fill-opacity:1" />
</svg>

<svg xmlns="http://www.w3.org/2000/svg" viewBox="0 0 16 16"><path d="M6.125 2L2 6v8h8l4-4V2z" fill="#cae795"/><path d="M5.313 2C5.322 1.998 2 5.313 2 5.313V14h8.688S14.01 10.717 14 10.719V2H6zm.5 1h6.468c-.833.844-1.627 1.661-1.969 2H3.688L5 3.719C4.957 3.716 5.813 3 5.813 3zM13 3.719v6.594l-.719.687c-.544.552-.735.762-1.281 1.313V5.687zM3 6h7v7H3v-.688z" fill="#46a926"/></svg>
